X: 21503
T: Kid In The Meadow, The
R: jig
M: 6/8
K: Dmajor
|:A|dcd ecA|B/c/dB AFD|~E3 G2A|Bdc B2A|
dcd ecA|B/c/dB AFD|~D3 DEF|~E3 D2:|
|:A|~d3 fdd|gfe ~f3|E2F G2A|Bdc B2z|
~d3 fdd|edd f2g|agf gfe|dBc d2:|

